X: 25
T: Tripping Up The Stairs
B: begged borrowed and stolen
M:6/8
L:1/8
R: jig
Q: 3/8=100
K:Dmajor
V:1 
|:"D"FAA "G"GBB|"D"Add fed|"A"cBc ABc|"D"dfe "G"dAG|
 "D"FAA "G"GBB|"D"Add fed|"A"cBc ABc|"D"dfe d2A:|
|:"Bm"dBB fBB|"Bm"dBB fed|"A"cAA eAA|"A"afa ecA|
 "Bm"dBB fBB|"Bm"dBB fed|"A"cBc ABc|"D"dfe d3:|
% abcbook-tune_id 62828a3a3c8da180120d3c7d


% abcbook-boost 0
% abcbook-tablature 
% abcbook-transpose 
% abcbook-lastupdated 1652725431058
% abcbook-soundfonts 
% abcbook-repeats 3
% abc-sessionorg_id 111
% abc-sessionorg_setting 0
% abc-sessionorg_setting_id 28407
% abc-boost 0

